icons/sort-desc-24.svg

<svg width="24" height="24" viewBox="0 0 24 24" fill="none" xmlns="http://www.w3.org/2000/svg">
<path d="M18.5 16.4393L18.5 6.75C18.5 6.33579 18.1642 6 17.75 6C17.3358 6 17 6.33579 17 6.75L17 16.4393L14.7803 14.2197C14.4874 13.9268 14.0126 13.9268 13.7197 14.2197C13.4268 14.5126 13.4268 14.9874 13.7197 15.2803L17.2197 18.7803C17.5126 19.0732 17.9874 19.0732 18.2803 18.7803L21.7803 15.2803C22.0732 14.9874 22.0732 14.5126 21.7803 14.2197C21.4874 13.9268 21.0126 13.9268 20.7197 14.2197L18.5 16.4393Z" fill="#24292E"/>
<path d="M2 7.25C2 6.83579 2.33579 6.5 2.75 6.5H12.25C12.6642 6.5 13 6.83579 13 7.25C13 7.66421 12.6642 8 12.25 8H2.75C2.33579 8 2 7.66421 2 7.25Z" fill="#24292E"/>
<path d="M2 12.25C2 11.8358 2.33579 11.5 2.75 11.5H8.25C8.66421 11.5 9 11.8358 9 12.25C9 12.6642 8.66421 13 8.25 13H2.75C2.33579 13 2 12.6642 2 12.25Z" fill="#24292E"/>
<path d="M2 17.25C2 16.8358 2.33579 16.5 2.75 16.5H6.25C6.66421 16.5 7 16.8358 7 17.25C7 17.6642 6.66421 18 6.25 18H2.75C2.33579 18 2 17.6642 2 17.25Z" fill="#24292E"/>
</svg>

<svg xmlns="http://www.w3.org/2000/svg" width="24" height="24" viewBox="0 0 24 24"><path d="M18.5 16.44V6.75a.75.75 0 00-1.5 0v9.69l-2.22-2.22a.75.75 0 10-1.06 1.06l3.5 3.5a.75.75 0 001.06 0l3.5-3.5a.75.75 0 10-1.06-1.06l-2.22 2.22zM2 7.25a.75.75 0 01.75-.75h9.5a.75.75 0 010 1.5h-9.5A.75.75 0 012 7.25zm0 5a.75.75 0 01.75-.75h5.5a.75.75 0 010 1.5h-5.5a.75.75 0 01-.75-.75zm0 5a.75.75 0 01.75-.75h3.5a.75.75 0 010 1.5h-3.5a.75.75 0 01-.75-.75z"/></svg>
